X: 13167
T: First Of May, The
R: hornpipe
M: 4/4
K: Adorian
E*AA>B c2 c2|A>dd>e f2 e>f|g>fe^>c d*fe>c|1 d*^cA>F G2 F>G:|
a2 (3agf g2 g>e|f2 f>d e2 e>f|g>fe>^c d*fe>c|d>^cA>F G2 F>G|
E*AA>B c2 c>B|A*dd>e f2 e>f|g>fe>^c d>f (3edc|A2 (3BA^G A2||

